assets/Angry face with horns/Flat/angry_face_with_horns_flat.svg

<svg width="32" height="32" viewBox="0 0 32 32" fill="none" xmlns="http://www.w3.org/2000/svg">
<path d="M15.9989 29.9978C25.3333 29.9978 29.9978 23.7303 29.9978 15.9989C29.9978 13.6129 29.5535 11.3664 28.6649 9.40047C29.6504 6.0496 28.1483 3.22667 28.1483 3.22667C28.1483 3.22667 27.8283 2.71667 27.5483 3.22667C27.0374 4.13306 26.2812 4.7815 25.5986 5.22228C23.2999 3.2099 20.1001 2 15.9989 2C11.8997 2 8.70118 3.20866 6.40275 5.21918C5.72137 4.77846 4.96753 4.13094 4.45778 3.22667C4.17778 2.71667 3.85778 3.22667 3.85778 3.22667C3.85778 3.22667 2.35902 6.04333 3.33791 9.3893C2.44591 11.3579 2 13.6084 2 15.9989C2 23.7303 6.66443 29.9978 15.9989 29.9978Z" fill="#8C42B3"/>
<path d="M10.5 22C12.9853 22 15 19.9853 15 17.5C15 15.0147 12.9853 13 10.5 13C8.01472 13 6 15.0147 6 17.5C6 19.9853 8.01472 22 10.5 22Z" fill="white"/>
<path d="M21.5 22C23.9853 22 26 19.9853 26 17.5C26 15.0147 23.9853 13 21.5 13C19.0147 13 17 15.0147 17 17.5C17 19.9853 19.0147 22 21.5 22Z" fill="white"/>
<path d="M14.2899 13.501C14.7035 13.5231 15.0209 13.8763 14.9989 14.2899C14.9768 14.7035 14.6237 15.0209 14.21 14.9989C13.1929 14.9447 12.2213 14.6953 11.3932 14.1186C10.558 13.537 9.93308 12.6671 9.53869 11.4878C9.40731 11.095 9.61925 10.6701 10.0121 10.5387C10.4049 10.4073 10.8299 10.6192 10.9612 11.0121C11.2715 11.9398 11.7235 12.5207 12.2504 12.8877C12.7846 13.2597 13.4607 13.4568 14.2899 13.501Z" fill="#402A32"/>
<path d="M17.71 13.501C17.2964 13.5231 16.979 13.8763 17.001 14.2899C17.0231 14.7035 17.3763 15.0209 17.7899 14.9989C18.807 14.9447 19.7786 14.6953 20.6067 14.1186C21.442 13.537 22.0668 12.6671 22.4612 11.4878C22.5926 11.095 22.3807 10.6701 21.9878 10.5387C21.595 10.4073 21.1701 10.6192 21.0387 11.0121C20.7284 11.9398 20.2764 12.5207 19.7495 12.8877C19.2153 13.2597 18.5392 13.4568 17.71 13.501Z" fill="#402A32"/>
<path d="M12 19.9999C13.1046 19.9999 14 19.1045 14 17.9999C14 16.8954 13.1046 15.9999 12 15.9999C10.8954 15.9999 10 16.8954 10 17.9999C10 19.1045 10.8954 19.9999 12 19.9999Z" fill="#402A32"/>
<path d="M20 19.9999C21.1046 19.9999 22 19.1045 22 17.9999C22 16.8954 21.1046 15.9999 20 15.9999C18.8954 15.9999 18 16.8954 18 17.9999C18 19.1045 18.8954 19.9999 20 19.9999Z" fill="#402A32"/>
<path d="M12.8944 25.4472C13.0659 25.1041 13.9954 23.9999 16 23.9999C18.0046 23.9999 18.9341 25.1041 19.1056 25.4472C19.3526 25.9411 19.9532 26.1414 20.4472 25.8944C20.9412 25.6474 21.1414 25.0467 20.8944 24.5527C20.3993 23.5624 18.7954 21.9999 16 21.9999C13.2046 21.9999 11.6007 23.5624 11.1056 24.5527C10.8586 25.0467 11.0588 25.6474 11.5528 25.8944C12.0468 26.1414 12.6474 25.9411 12.8944 25.4472Z" fill="#402A32"/>
</svg>

<svg xmlns="http://www.w3.org/2000/svg" width="32" height="32" fill="none"><path fill="#8C42B3" d="M15.999 29.998c9.334 0 13.999-6.268 13.999-14 0-2.385-.445-4.632-1.333-6.598.985-3.35-.517-6.173-.517-6.173s-.32-.51-.6 0c-.51.906-1.267 1.555-1.95 1.995C23.3 3.21 20.1 2 15.999 2 11.9 2 8.702 3.209 6.404 5.22c-.682-.442-1.435-1.09-1.945-1.993-.28-.51-.6 0-.6 0s-1.499 2.816-.52 6.162C2.446 11.358 2 13.61 2 16c0 7.731 4.664 13.999 13.999 13.999Z"/><path fill="#fff" d="M10.5 22a4.5 4.5 0 1 0 0-9 4.5 4.5 0 0 0 0 9ZM21.5 22a4.5 4.5 0 1 0 0-9 4.5 4.5 0 0 0 0 9Z"/><path fill="#402A32" d="M14.29 13.501a.75.75 0 0 1-.08 1.498c-1.017-.054-1.989-.304-2.817-.88-.835-.582-1.46-1.452-1.854-2.631a.75.75 0 1 1 1.422-.476c.31.928.762 1.509 1.29 1.876.534.372 1.21.569 2.039.613ZM17.71 13.501a.75.75 0 0 0 .08 1.498c1.017-.054 1.989-.304 2.817-.88.835-.582 1.46-1.452 1.854-2.631a.75.75 0 1 0-1.422-.476c-.31.928-.763 1.509-1.29 1.876-.534.372-1.21.569-2.039.613ZM12 20a2 2 0 1 0 0-4 2 2 0 0 0 0 4ZM20 20a2 2 0 1 0 0-4 2 2 0 0 0 0 4ZM12.894 25.447C13.066 25.104 13.995 24 16 24s2.934 1.104 3.106 1.447a1 1 0 1 0 1.788-.894C20.4 23.563 18.795 22 16 22s-4.4 1.562-4.894 2.553a1 1 0 0 0 1.788.894Z"/></svg>
